X:2949
T:V\aart land, v\aart land, v\aart fosterland
T:Finnish national anthem
C:Fredrik Pacius
O:Finland
Z:Transcribed by Frank Nordberg - http://www.musicaviva.com
F:http://abc.musicaviva.com/tunes/pacius-fredrik/pacius-vaart-land.abc
M:3/4
L:1/8
K:C
G EG|G3 c d>G|e4Sc2|A>dc2B2|c4SG2|
d>c BA GF|EA G2SG2|d>c BA GF|EA G3SG|
c>G EG cd|e4c2|A>dc2B2Hc2 z|]
W:
W:
W:  From Musica Viva - http://www.musicaviva.com
W:  the Internet center for free sheet music downloads.
